svgs/thin/battery-exclamation.svg

<svg xmlns="http://www.w3.org/2000/svg" viewBox="0 0 576 512"><!-- Font Awesome Pro 6.0.0-alpha2 by @fontawesome - https://fontawesome.com License - https://fontawesome.com/license (Commercial License) --><path d="M272 416C263.18 416 256 423.178 256 432C256 440.82 263.18 448 272 448S288 440.82 288 432C288 423.178 280.82 416 272 416ZM272 352C276.418 352 280 348.418 280 344V72C280 67.582 276.418 64 272 64S264 67.582 264 72V344C264 348.418 267.582 352 272 352ZM544 192H528V160C528 124.652 499.346 96 464 96H328C323.582 96 320 99.582 320 104S323.582 112 328 112H464C490.51 112 512 133.49 512 160V352C512 378.51 490.51 400 464 400H352C347.582 400 344 403.582 344 408S347.582 416 352 416H464C499.346 416 528 387.346 528 352V320H544C561.674 320 576 305.672 576 288V224C576 206.326 561.674 192 544 192ZM560 288C560 296.822 552.82 304 544 304H528V208H544C552.82 208 560 215.178 560 224V288ZM216 96H64C28.654 96 0 124.652 0 160V352C0 387.346 28.654 416 64 416H192C196.418 416 200 412.418 200 408S196.418 400 192 400H64C37.49 400 16 378.51 16 352V160C16 133.49 37.49 112 64 112H216C220.418 112 224 108.418 224 104S220.418 96 216 96Z"/></svg>

<svg xmlns="http://www.w3.org/2000/svg" viewBox="0 0 576 512"><!--! Font Awesome Pro 6.0.0-alpha3 by @fontawesome - https://fontawesome.com License - https://fontawesome.com/license (Commercial License) --><path d="M272 416C263.2 416 256 423.2 256 432C256 440.8 263.2 448 272 448s16-7.18 16-16C288 423.2 280.8 416 272 416zM272 352c4.418 0 8-3.582 8-8v-272C280 67.58 276.4 64 272 64S264 67.58 264 72v272C264 348.4 267.6 352 272 352zM544 192h-16V160c0-35.35-28.65-64-64-64h-136C323.6 96 320 99.58 320 104s3.582 8 8 8h136C490.5 112 512 133.5 512 160v192c0 26.51-21.49 48-48 48H352c-4.418 0-8 3.582-8 8S347.6 416 352 416h112c35.35 0 64-28.65 64-64v-32H544c17.67 0 32-14.33 32-32V224C576 206.3 561.7 192 544 192zM560 288c0 8.822-7.18 16-16 16h-16v-96H544c8.82 0 16 7.178 16 16V288zM216 96H64C28.65 96 0 124.7 0 160v192c0 35.35 28.65 64 64 64h128c4.418 0 8-3.582 8-8S196.4 400 192 400H64c-26.51 0-48-21.49-48-48V160c0-26.51 21.49-48 48-48h152C220.4 112 224 108.4 224 104S220.4 96 216 96z"/></svg>
